assets/nutanix.svg

<?xml version="1.0" encoding="UTF-8"?><svg xmlns="http://www.w3.org/2000/svg" xmlns:xlink="http://www.w3.org/1999/xlink" id="Layer_1" x="0px" y="0px" viewBox="0 0 70.7 48.2" style="enable-background:new 0 0 70.7 48.2;" xml:space="preserve"> <style type="text/css"> .st0{fill:#A8CB3A;} .st1{fill:#174489;} </style> <title>nutanix logo</title> <g> <path id="Fill-1" class="st0" d="M15.6,47.8c-0.2,0.2-0.4,0.3-0.7,0.3H1.1c-0.4,0-0.9-0.2-1-0.6c-0.2-0.5-0.1-1,0.3-1.3L25.5,25 c0.6-0.5,0.6-1.3,0-1.8L0.4,2C0.1,1.7-0.1,1.3,0,0.9C0.1,0.4,0.6,0,1.1,0h13.2c0.3,0,0.5,0.1,0.7,0.3l27.3,23l0.2,0.2 c0.4,0.4,0.4,1,0,1.4l-0.3,0.2L15.6,47.8"></path> <path id="Fill-8" class="st1" d="M46.6,20.2c0.4,0.4,1.1,0.4,1.5,0L70,2c0.3-0.3,0.5-0.7,0.4-1C70.3,0.4,69.8,0,69.3,0H56.1 c-0.3,0-0.5,0.1-0.7,0.3L40,12.8c-0.6,0.5-0.6,1.3,0,1.8L46.6,20.2"></path> <path id="Fill-9" class="st1" d="M46.5,28.1c0.4-0.4,1.1-0.4,1.5,0l22.2,18.2c0.3,0.3,0.5,0.7,0.4,1c-0.1,0.5-0.6,0.9-1.1,0.9H56.3 c-0.3,0-0.5-0.1-0.7-0.3L40.4,35.3c-0.6-0.5-0.6-1.3,0-1.8L46.5,28.1"></path> </g> </svg>

<?xml version="1.0" encoding="UTF-8" standalone="no"?>
<!DOCTYPE svg PUBLIC "-//W3C//DTD SVG 1.1//EN" "http://www.w3.org/Graphics/SVG/1.1/DTD/svg11.dtd">
<svg width="100%" height="100%" viewBox="0 0 100 100" version="1.1" xmlns="http://www.w3.org/2000/svg" xmlns:xlink="http://www.w3.org/1999/xlink" xml:space="preserve" xmlns:serif="http://www.serif.com/" style="fill-rule:evenodd;clip-rule:evenodd;stroke-linejoin:round;stroke-miterlimit:2;">
    <g transform="matrix(0.837016,0,0,0.837016,20.4533,29.8279)">
        <g>
            <path id="Fill-1" d="M15.6,47.8C15.4,48 15.2,48.1 14.9,48.1L1.1,48.1C0.7,48.1 0.2,47.9 0.1,47.5C-0.1,47 0,46.5 0.4,46.2L25.5,25C26.1,24.5 26.1,23.7 25.5,23.2L0.4,2C0.1,1.7 -0.1,1.3 0,0.9C0.1,0.4 0.6,0 1.1,0L14.3,0C14.6,0 14.8,0.1 15,0.3L42.3,23.3L42.5,23.5C42.9,23.9 42.9,24.5 42.5,24.9L42.2,25.1L15.6,47.8" style="fill:rgb(168,203,58);fill-rule:nonzero;"/>
            <path id="Fill-8" d="M46.6,20.2C47,20.6 47.7,20.6 48.1,20.2L70,2C70.3,1.7 70.5,1.3 70.4,1C70.3,0.4 69.8,0 69.3,0L56.1,0C55.8,0 55.6,0.1 55.4,0.3L40,12.8C39.4,13.3 39.4,14.1 40,14.6L46.6,20.2" style="fill:rgb(23,68,137);fill-rule:nonzero;"/>
            <path id="Fill-9" d="M46.5,28.1C46.9,27.7 47.6,27.7 48,28.1L70.2,46.3C70.5,46.6 70.7,47 70.6,47.3C70.5,47.8 70,48.2 69.5,48.2L56.3,48.2C56,48.2 55.8,48.1 55.6,47.9L40.4,35.3C39.8,34.8 39.8,34 40.4,33.5L46.5,28.1" style="fill:rgb(23,68,137);fill-rule:nonzero;"/>
        </g>
    </g>
</svg>
